X: 4805
T: Oer the Muir to Ketty
O: trad Scotland
N: Tune for the dance Rye Twist
M: C|
L: 1/8
R: Scots Measure
B: McGlashan Collection of Scots Measures (178?)
Z: AK/Fiddlers Companion (chords added by John Chambers)
K: D
F>E |\
"D"D3F "A/D"ABAF | "D"A2d2 "A/D"d3A | "D"ABde "Bm"f2ed | "Em"e2E2 "A"E2F>E |\
"D"D3F "A/D"ABAF | "D"A2d2 "Bm"d3A | "Em"ABde "A7"fgef | "D"d2D2 D2 ||
de |\
"D"fedB "A/D"ABdF | "D"A2d2 "Bm"d3F | "Em"G3A "B/Em"BAGF | "Em"E2e2 "A7"e2ag |\
"D"fedf "A"edce | "Bm"dcBA "G/Em"BAGF | "Em"EFGE "A7"AGFE | "D"D2d2 d2 |]
%%center Book48/4805-Oer_the_Muir_To_Ketty-D4-16-2.abc

%%sep 1 1 500
%%sep 1 1 500

